X:996
T:the Wedding of Ballyporeen   #2
R: jig
%S: s:2 b:12(6+6)
B:Francis O'Neill: "The Dance Music of Ireland" (1907) #996
Z:Frank Nordberg - http://www.musicaviva.com
F:http://www.musicaviva.com/abc/tunes/ireland/oneill-1001/0996/oneill-1001-0996-1.abc
N: Compacted via repeat [JC]
M:6/8
L:1/8
K:G
"^A"[|] (B/A/) | G>AG g>fg | agf g2(g/a/) | b>ag efg | dec B2 "B":| (c/d/) | ecA  A>BA | (e3 c2)c |
| dBG G>AG | (d3 B2)(c/d/) || ecA  A>BA | a3 Hf2 f/f/ | gdB cAF | G3 G2 |]
